X:408
T:Inveresk House 
C:Joe Buchanan's Scottish Tome - Page 370.0
I:370 0
C:Mauchline, James / Morrison, Iain, P.M.
R:March
Z:Carl Allison
L:1/8
M:2/4
K:D
(a/>g/) | "D"f(e/>d/) "G"e(d/>B/) | "D"A/>B/d/A/ "G"B(A/>B/) | "D"d(f/>d/) "Bm"a/>f/e/>d/ | "E7"fe "A7"e(a/>g/) |
"D"f(e/d/) "G"e(d/B/) | "d"A/>B/d/>A/ "G"Bd | "Bm"a/>f/e/>f/ "A7"e/>d/B/<A/ | "G"Bd d :|
g | "D"ad "G"f(e/>d/) | "D"a/>d/f/>d/ a/>d/f/>d/ | "D"ad "Bm"f(e/>d/) | "E7"Be "A7"eg |
"D"ad f(e/>d/) | "D"a/>d/f/>d/ a/>d/f/>d/ | "D"a/>f/e/>f/ "Bm"e/>d/B/<A/ | "G"Bd "D"dg |
"D"ad f(e/>d/) | "D"a/>d/f/>d/ a/>d/(f/>d/) | "D"ad  "Gm"fe/>d/ | "E7"Be "A7"eg |
"G"B/<G/B/>c/ d(c/>B/) | "D"Ad f(e/>d/) | "D"a/>f/e/>f/ "Bm"e/>d/B/<A/ |  "G"Bd "D"d |]
f | "D"A>B Ad | "Em"B/<A/B/>d/ "A7"e2 | "D"fe/>d/ "Bm"a/>f/e/>d/ | "E7"fe "A7"ef |
"D"A>B Ad | "Em"B/<A/B/>d/ "A7"eg | "D"a/>f/e/>f/ e/>d/B/<A/ | "G"Bd "D"d :|
g | "D"a/>e/e/>f/ "Em"e/>d/B/<d/ | "D"A/>B/d/<A/ "G"B/<A/B/<d/ | "D"f(e/>d/) "Bm"a/>f/e/>d/ | "E7"fe "A7"eg |
"D"a/>f/e/>f/ "Bm"e/>d/B/<d/ | "D"A/>B/d/<A/ "G"B/<A/B/<d/ | "D"a/>f/e/>f/ "Bm"e/>d/B/<A/ | "G"Bd "D"dg |
"D"a/>e/e/>f/ "Em"e/>d/B/<d/ | "D"A/>B/d/<A/ "G"B/<A/B/<d/ | "D"f(e/>d/) "Bm"a/>f/e/>d/ | "E7"fe "A7"eg |
"G"B/<G/B/>c/ d(c/>B/) | "D"Ad f(e/>d/) | "D"a/>f/e/>f/ "Bm"e/>d/B/<A/ |  "G"Bd "D"d |]

